<?xml version="1.0" encoding="UTF-8"?>
<map version="1.10" tiledversion="1.12.2" orientation="orthogonal" renderorder="right-down" width="32" height="12" tilewidth="32" tileheight="32" infinite="0" nextlayerid="17" nextobjectid="17">
 <editorsettings>
  <export target="nivel1.tmx" format="tmx"/>
 </editorsettings>
 <tileset firstgid="1" source="texturas_suelo1.tsx"/>
 <tileset firstgid="25" source="pasto.tsx"/>
 <tileset firstgid="28" source="Tree1.tsx"/>
 <tileset firstgid="76" source="textura_piso1.tsx"/>
 <tileset firstgid="238" source="GandalfHardcore Water Tiles sheet.tsx"/>
 <tileset firstgid="268" source="otros_pisos.tsx"/>
 <tileset firstgid="331" source="Pine Trees.tsx"/>
 <tileset firstgid="457" source="sun.tsx"/>
 <imagelayer id="6" name="Capa de Imagen 2" locked="1" offsetx="0" offsety="-4">
  <image source="GandalfHardcore FREE Platformer Assets/GandalfHardcore Background layers/Normal BG/GandalfHardcore Background layers_layer 5.png" width="1024" height="346"/>
 </imagelayer>
 <imagelayer id="9" name="Capa de Imagen 5" locked="1" offsetx="1" offsety="-30">
  <image source="GandalfHardcore FREE Platformer Assets/GandalfHardcore Background layers/Normal BG/GandalfHardcore Background layers_layer 4.png" width="1024" height="346"/>
 </imagelayer>
 <imagelayer id="8" name="Capa de Imagen 4" locked="1" offsetx="11" offsety="34">
  <image source="GandalfHardcore FREE Platformer Assets/GandalfHardcore Background layers/Normal BG/GandalfHardcore Background layers_layer 3.png" width="1024" height="346"/>
 </imagelayer>
 <imagelayer id="7" name="Capa de Imagen 3" locked="1" offsetx="8" offsety="22">
  <image source="GandalfHardcore FREE Platformer Assets/GandalfHardcore Background layers/Normal BG/GandalfHardcore Background layers_layer 2.png" width="1024" height="346"/>
 </imagelayer>
 <imagelayer id="4" name="Capa de Imagen 1" locked="1" offsetx="1" offsety="40">
  <image source="GandalfHardcore FREE Platformer Assets/GandalfHardcore Background layers/Normal BG/GandalfHardcore Background layers_layer 1.png" width="1024" height="346"/>
 </imagelayer>
 <layer id="13" name="sol" width="32" height="12">
  <data encoding="csv">
0,0,0,0,0,0,0,0,0,0,0,0,0,0,0,0,0,0,0,0,0,0,0,0,0,0,0,0,0,0,0,0,
0,457,0,0,0,0,0,0,0,0,0,0,0,0,0,0,0,0,0,0,0,0,0,0,0,0,0,0,0,0,0,0,
0,0,0,0,0,0,0,0,0,0,0,0,0,0,0,0,0,0,0,0,0,0,0,0,0,0,0,0,0,0,0,0,
0,0,0,0,0,0,0,0,0,0,0,0,0,0,0,0,0,0,0,0,0,0,0,0,0,0,0,0,0,0,0,0,
0,0,0,0,0,0,0,0,0,0,0,0,0,0,0,0,0,0,0,0,0,0,0,0,0,0,0,0,0,0,0,0,
0,0,0,0,0,0,0,0,0,0,0,0,0,0,0,0,0,0,0,0,0,0,0,0,0,0,0,0,0,0,0,0,
0,0,0,0,0,0,0,0,0,0,0,0,0,0,0,0,0,0,0,0,0,0,0,0,0,0,0,0,0,0,0,0,
0,0,0,0,0,0,0,0,0,0,0,0,0,0,0,0,0,0,0,0,0,0,0,0,0,0,0,0,0,0,0,0,
0,0,0,0,0,0,0,0,0,0,0,0,0,0,0,0,0,0,0,0,0,0,0,0,0,0,0,0,0,0,0,0,
0,0,0,0,0,0,0,0,0,0,0,0,0,0,0,0,0,0,0,0,0,0,0,0,0,0,0,0,0,0,0,0,
0,0,0,0,0,0,0,0,0,0,0,0,0,0,0,0,0,0,0,0,0,0,0,0,0,0,0,0,0,0,0,0,
0,0,0,0,0,0,0,0,0,0,0,0,0,0,0,0,0,0,0,0,0,0,0,0,0,0,0,0,0,0,0,0
</data>
 </layer>
 <layer id="11" name="arboles" width="32" height="12">
  <data encoding="csv">
0,0,0,0,0,0,0,0,0,0,0,0,0,0,0,0,0,0,0,0,0,0,0,0,0,0,0,0,0,0,0,0,
0,0,0,0,0,0,0,0,0,0,0,0,0,0,0,0,0,0,0,0,0,0,0,0,0,0,0,0,0,0,0,0,
0,0,0,0,0,0,0,0,0,0,0,0,0,332,0,0,0,0,0,0,0,0,0,0,0,28,29,30,31,32,33,34,
0,0,0,0,0,0,0,0,0,0,0,0,0,353,0,0,0,0,0,0,0,0,0,0,0,36,37,38,39,40,41,42,
28,29,30,31,32,33,34,35,0,0,0,0,373,374,375,0,0,0,0,0,0,331,0,0,0,44,45,46,47,48,49,50,
36,37,38,39,40,41,42,43,0,0,0,0,394,395,396,0,0,0,335,0,0,352,0,0,0,52,53,54,55,56,57,58,
44,45,46,47,48,49,50,51,0,0,0,0,415,416,417,0,0,0,356,0,0,0,0,0,0,60,61,62,63,64,65,66,
52,53,54,55,56,57,58,59,0,0,0,0,436,437,438,0,0,376,377,378,0,0,0,0,0,68,69,70,71,72,73,74,
60,61,62,63,64,65,66,67,0,0,0,0,0,0,0,0,0,397,398,399,0,0,0,0,0,0,0,0,0,0,0,0,
68,69,70,71,72,73,74,75,0,0,0,0,0,0,0,0,0,418,419,420,0,332,0,0,0,0,0,0,0,0,0,0,
0,0,0,0,0,0,0,0,0,0,0,0,0,0,0,0,0,439,440,441,0,353,0,0,0,0,0,0,0,0,0,0,
0,0,0,0,0,0,0,0,0,0,0,0,0,0,0,0,0,0,0,0,0,0,0,0,0,0,0,0,0,0,0,0
</data>
 </layer>
 <layer id="12" name="agua" width="32" height="12">
  <properties>
   <property name="es_agua" type="bool" value="true"/>
  </properties>
  <data encoding="csv">
0,0,0,0,0,0,0,0,0,0,0,0,0,0,0,0,0,0,0,0,0,0,0,0,0,0,0,0,0,0,0,0,
0,0,0,0,0,0,0,0,0,0,0,0,0,0,0,0,0,0,0,0,0,0,0,0,0,0,0,0,0,0,0,0,
0,0,0,0,0,0,0,0,0,0,0,0,0,0,0,0,0,0,0,0,0,0,0,0,0,0,0,0,0,0,0,0,
0,0,0,0,0,0,0,0,0,0,0,0,0,0,0,0,0,0,0,0,0,0,0,0,0,0,0,0,0,0,0,0,
0,0,0,0,0,0,0,0,0,0,0,0,0,0,0,0,0,0,0,0,0,0,0,0,0,0,0,0,0,0,0,0,
0,0,0,0,0,0,0,0,0,0,0,0,0,0,0,0,0,0,0,0,0,0,0,0,0,0,0,0,0,0,0,0,
0,0,0,0,0,0,0,0,0,0,0,0,0,0,0,0,0,0,0,0,0,0,0,0,0,0,0,0,0,0,0,0,
0,0,0,0,0,0,0,0,0,0,0,0,0,0,0,0,0,0,0,0,0,0,0,0,0,0,0,0,0,0,0,0,
0,0,0,0,0,0,0,0,0,0,0,0,0,0,0,0,0,0,0,0,0,0,0,0,0,0,0,0,0,0,0,0,
0,0,0,0,0,0,0,0,0,0,0,0,0,0,0,0,0,0,0,0,0,0,0,0,0,0,0,0,0,0,0,0,
0,0,0,0,0,0,238,239,240,0,0,0,0,0,0,0,0,0,0,0,0,0,0,0,0,0,0,0,0,0,0,0,
0,0,0,0,0,0,246,246,246,0,0,0,0,0,0,0,0,0,0,0,0,0,0,0,0,0,0,0,0,0,0,0
</data>
 </layer>
 <layer id="1" name="piso" width="32" height="12">
  <data encoding="csv">
0,0,0,0,0,0,0,0,0,0,0,0,0,0,0,0,0,0,0,0,0,0,0,0,0,0,0,0,0,0,0,0,
0,0,0,0,0,0,0,0,0,0,0,0,0,0,0,0,0,0,0,0,0,0,0,0,0,0,0,0,0,0,0,0,
0,0,0,0,0,0,0,0,0,0,0,0,0,0,0,0,0,0,0,0,0,0,0,0,0,0,0,0,0,0,0,0,
0,0,0,0,0,0,0,0,0,0,0,0,0,0,0,0,0,0,0,0,0,0,0,0,0,0,0,0,0,0,0,0,
0,0,0,0,0,0,34,35,0,0,0,0,0,0,0,0,0,0,0,0,0,0,0,0,0,0,0,0,0,0,0,0,
36,0,0,0,0,0,0,0,0,0,0,0,0,0,0,0,0,0,0,0,0,0,0,0,0,0,0,0,0,0,0,0,
0,0,0,0,0,0,0,0,0,0,0,0,0,0,0,0,0,0,0,0,127,128,128,129,0,0,0,0,0,0,0,0,
0,0,0,0,0,0,0,0,0,0,0,0,0,0,0,0,0,0,0,0,0,0,0,0,0,0,0,0,0,0,0,0,
60,0,0,0,0,0,0,0,0,0,0,0,76,77,77,77,78,0,0,0,0,0,0,0,0,76,77,77,77,77,77,77,
0,0,0,0,0,0,74,75,0,0,0,0,85,86,86,86,87,0,0,0,0,0,0,0,0,85,86,86,86,86,86,86,
77,77,77,77,77,78,0,0,0,76,2147483936,77,102,86,86,86,87,0,0,0,0,0,0,0,0,85,86,86,86,86,86,86,
86,86,86,86,86,87,0,0,0,85,86,86,86,86,86,86,100,77,77,77,77,77,77,77,77,102,86,86,86,86,86,86
</data>
 </layer>
 <layer id="10" name="pasto" width="32" height="12">
  <data encoding="csv">
0,0,0,0,0,0,0,0,0,0,0,0,0,0,0,0,0,0,0,0,0,0,0,0,0,0,0,0,0,0,0,0,
0,0,0,0,0,0,0,0,0,0,0,0,0,0,0,0,0,0,0,0,0,0,0,0,0,0,0,0,0,0,0,0,
0,0,0,0,0,0,0,0,0,0,0,0,0,0,0,0,0,0,0,0,0,0,0,0,0,0,0,0,0,0,0,0,
0,0,0,0,0,0,0,0,0,0,0,0,0,0,0,0,0,0,0,0,0,0,0,0,0,0,0,0,0,0,0,0,
0,0,0,0,0,0,0,0,0,0,0,0,0,0,0,0,0,0,0,0,0,0,0,0,0,0,0,0,0,0,0,0,
0,0,0,0,0,0,0,0,0,0,0,0,0,0,0,0,0,0,0,0,0,0,0,0,0,0,0,0,0,0,0,0,
0,0,0,0,0,0,0,0,0,0,0,0,0,0,0,0,0,0,0,0,0,0,0,0,0,0,0,0,0,0,0,0,
0,0,0,0,0,0,0,0,0,0,0,0,25,26,26,26,27,0,0,0,0,0,0,0,0,0,25,26,26,26,26,26,
0,0,0,0,0,0,0,0,0,0,0,0,0,0,0,0,0,0,0,0,0,0,0,0,0,0,0,0,0,0,0,0,
25,26,26,26,26,27,0,0,0,0,0,0,0,0,0,0,0,0,0,0,0,0,0,0,0,0,0,0,0,0,0,0,
0,0,0,0,0,0,0,0,0,0,0,0,0,0,0,0,0,0,0,25,26,26,26,27,0,0,0,0,0,0,0,0,
0,0,0,0,0,0,0,0,0,0,0,0,0,0,0,0,0,0,0,0,0,0,0,0,0,0,0,0,0,0,0,0
</data>
 </layer>
 <objectgroup id="16" name="spawpoints">
  <object id="1" name="jugador" x="43.5" y="292.5"/>
  <object id="4" name="Enemigo" x="318.5" y="298"/>
  <object id="6" name="espada" x="155" y="300.667"/>
  <object id="7" name="Enemigo" x="451" y="216"/>
  <object id="8" name="Enemigo" x="649" y="314"/>
  <object id="9" name="Enemigo" x="720" y="315"/>
  <object id="10" name="Enemigo" x="767" y="309"/>
  <object id="11" name="Enemigo" x="590" y="305"/>
  <object id="12" name="Enemigo" x="695" y="152"/>
  <object id="13" name="Enemigo" x="503" y="210"/>
  <object id="14" name="Enemigo" x="833" y="194"/>
  <object id="15" name="Enemigo" x="897" y="200"/>
  <object id="16" name="Enemigo" x="965" y="194"/>
 </objectgroup>
</map>
